;FLAVOR:Marlin
;TIME:8247
;Filament used: 2.66134m
;Layer height: 0.1
;MINX:60.138
;MINY:66.133
;MINZ:0.1
;MAXX:159.863
;MAXY:152.93
;MAXZ:7
;Generated with Cura_SteamEngine 5.0.0
M140 S45
M105
M190 S45
M104 S220
M105
M109 S220
M82 ;absolute extrusion mode
M201 X500.00 Y500.00 Z100.00 E5000.00 ;Setup machine max acceleration
M203 X500.00 Y500.00 Z10.00 E50.00 ;Setup machine max feedrate
M204 P500.00 R1000.00 T500.00 ;Setup Print/Retract/Travel acceleration
M205 X8.00 Y8.00 Z0.40 E5.00 ;Setup Jerk
M220 S100 ;Reset Feedrate
M221 S100 ;Reset Flowrate

G28 ;Home
M420 S1 Z2 ;Enable ABL using saved Mesh and Fade Height

G92 E0 ;Reset Extruder
G1 Z2.0 F3000 ;Move Z Axis up
G1 X10.1 Y20 Z0.28 F5000.0 ;Move to start position
G1 X10.1 Y200.0 Z0.28 F1500.0 E15 ;Draw the first line
G1 X10.4 Y200.0 Z0.28 F5000.0 ;Move to side a little
G1 X10.4 Y20 Z0.28 F1500.0 E30 ;Draw the second line
G92 E0 ;Reset Extruder
G1 Z2.0 F3000 ;Move Z Axis up

G92 E0
G92 E0
G1 F2400 E-4.5
;LAYER_COUNT:70
;LAYER:0
M107
G0 F6000 X63.752 Y69.72 Z0.1
G0 X60.138 Y78.79
;TYPE:SKIRT
G1 F2400 E0
G1 F1200 X60.142 Y78.543 E0.00403
G1 X60.197 Y77.573 E0.01986
G1 X60.401 Y76.264 E0.04145
G1 X60.541 Y75.61 E0.05235
G1 X60.784 Y74.669 E0.06819
G1 X61.102 Y73.752 E0.08401
G1 X61.496 Y72.863 E0.09986
G1 X61.961 Y72.011 E0.11567
G1 X62.494 Y71.199 E0.1315
G1 X63.093 Y70.434 E0.14734
G1 X63.752 Y69.72 E0.16317
G1 X64.468 Y69.064 E0.179
G1 X65.235 Y68.468 E0.19483
G1 X66.049 Y67.938 E0.21066
G1 X66.904 Y67.476 E0.2265
G1 X67.793 Y67.086 E0.24232
G1 X68.712 Y66.771 E0.25815
G1 X69.577 Y66.549 E0.27271
G1 X70.367 Y66.383 E0.28586
G1 X70.632 Y66.334 E0.29026
G1 X71.594 Y66.197 E0.30609
G1 X72.482 Y66.141 E0.32059
G1 X73.159 Y66.133 E0.33163
G1 X73.614 Y66.14 E0.33904
G1 X74.947 Y66.237 E0.36083
G1 X75.65 Y66.328 E0.37238
G1 X78.205 Y66.623 E0.41429
G1 X80.696 Y66.838 E0.45504
G1 X83.185 Y66.984 E0.49568
G1 X85.72 Y67.06 E0.53701
G1 X87.17 Y67.071 E0.56064
G1 X126.453 Y67.069 E1.20085
G1 X132.621 Y67.077 E1.30138
G1 X135.189 Y67.044 E1.34323
G1 X137.676 Y66.941 E1.3838
G1 X140.177 Y66.768 E1.42466
G1 X142.668 Y66.523 E1.46545
G1 X144.983 Y66.235 E1.50347
G1 X146.246 Y66.147 E1.5241
G1 X147.112 Y66.138 E1.53822
G1 X147.428 Y66.143 E1.54337
G1 X148.397 Y66.199 E1.55919
G1 X149.602 Y66.381 E1.57905
G1 X150.273 Y66.518 E1.59021
G1 X151.215 Y66.751 E1.60602
G1 X152.136 Y67.061 E1.62186
G1 X153.028 Y67.446 E1.63769
G1 X153.885 Y67.903 E1.65352
G1 X154.702 Y68.428 E1.66935
G1 X155.473 Y69.02 E1.68519
G1 X156.192 Y69.672 E1.70101
G1 X156.856 Y70.382 E1.71685
G1 X157.459 Y71.143 E1.73268
G1 X157.997 Y71.952 E1.74851
G1 X158.466 Y72.802 E1.76433
G1 X158.865 Y73.688 E1.78017
G1 X159.189 Y74.604 E1.796
G1 X159.411 Y75.43 E1.80994
G1 X159.555 Y76.055 E1.8204
G1 X159.734 Y77.009 E1.83622
G1 X159.834 Y77.976 E1.85206
G1 X159.856 Y78.599 E1.86222
G1 X159.863 Y79.388 E1.87508
G1 X159.831 Y80.359 E1.89091
G1 X159.771 Y80.967 E1.90087
G1 X159.67 Y81.748 E1.9137
G1 X159.479 Y83.083 E1.93568
G1 X159.19 Y85.61 E1.97713
G1 X158.98 Y88.046 E2.01698
G1 X158.835 Y90.574 E2.05825
G1 X158.761 Y93.084 E2.09917
G1 X158.751 Y94.481 E2.12194
G1 X158.754 Y104.357 E2.2829
G1 X158.873 Y124.133 E2.6052
G1 X158.925 Y139.17 E2.85027
G1 X158.917 Y139.872 E2.86171
G1 X158.866 Y140.843 E2.87756
G1 X158.736 Y141.805 E2.89338
G1 X158.526 Y142.754 E2.90922
G1 X158.239 Y143.682 E2.92505
G1 X157.877 Y144.583 E2.94087
G1 X157.442 Y145.452 E2.95671
G1 X156.937 Y146.282 E2.97254
G1 X156.366 Y147.067 E2.98836
G1 X155.507 Y148.037 E3.00948
G1 X155.005 Y148.542 E3.02108
G1 X153.986 Y149.54 E3.04433
G1 X153.264 Y150.191 E3.06017
G1 X152.492 Y150.78 E3.076
G1 X151.673 Y151.303 E3.09184
G1 X150.815 Y151.758 E3.10766
G1 X149.922 Y152.14 E3.12349
G1 X149 Y152.447 E3.13933
G1 X148.057 Y152.678 E3.15515
G1 X147.097 Y152.83 E3.17099
G1 X145.91 Y152.909 E3.19038
G1 X145.078 Y152.92 E3.20394
G1 X135.544 Y152.92 E3.35932
G1 X126.446 Y152.93 E3.5076
G1 X74.805 Y152.93 E4.34921
G1 X74.102 Y152.92 E4.36067
G1 X73.132 Y152.866 E4.37651
G1 X72.17 Y152.733 E4.39233
G1 X71.222 Y152.521 E4.40816
G1 X70.295 Y152.231 E4.42399
G1 X69.394 Y151.867 E4.43983
G1 X68.527 Y151.429 E4.45566
G1 X67.699 Y150.922 E4.47149
G1 X66.915 Y150.348 E4.48732
G1 X65.996 Y149.534 E4.50733
G1 X65.416 Y148.962 E4.5206
G1 X64.528 Y148.069 E4.54113
G1 X63.872 Y147.353 E4.55696
G1 X63.277 Y146.585 E4.57279
G1 X62.747 Y145.771 E4.58862
G1 X62.286 Y144.916 E4.60445
G1 X61.897 Y144.026 E4.62028
G1 X61.583 Y143.107 E4.63611
G1 X61.345 Y142.165 E4.65194
G1 X61.185 Y141.207 E4.66777
G1 X61.105 Y140.238 E4.68362
G1 X61.104 Y139.285 E4.69915
G1 X61.174 Y137.501 E4.72825
G1 X61.248 Y133.684 E4.79046
G1 X61.111 Y93.225 E5.44985
G1 X61.067 Y90.695 E5.49109
G1 X60.951 Y88.172 E5.53225
G1 X60.766 Y85.671 E5.57312
G1 X60.513 Y83.209 E5.61345
G1 X60.242 Y81.088 E5.6483
G1 X60.149 Y79.804 E5.66928
G1 X60.138 Y78.79 E5.68581
G0 F6000 X60.537 Y78.796
G1 F1200 X60.541 Y78.549 E5.68984
G1 X60.597 Y77.596 E5.70539
G1 X60.793 Y76.348 E5.72598
G1 X60.933 Y75.694 E5.73688
G1 X61.171 Y74.769 E5.75245
G1 X61.487 Y73.868 E5.76801
G1 X61.876 Y72.996 E5.78357
G1 X62.337 Y72.16 E5.79913
G1 X62.867 Y71.366 E5.81469
G1 X63.461 Y70.618 E5.83026
G1 X64.116 Y69.923 E5.84582
G1 X64.826 Y69.286 E5.86137
G1 X65.587 Y68.709 E5.87693
G1 X66.394 Y68.199 E5.89249
G1 X67.241 Y67.758 E5.90805
G1 X68.122 Y67.389 E5.92362
G1 X69.03 Y67.095 E5.93917
G1 X69.662 Y66.939 E5.94978
G1 X70.44 Y66.776 E5.96274
G1 X70.705 Y66.727 E5.96713
G1 X71.651 Y66.593 E5.9827
G1 X72.492 Y66.541 E5.99643
G1 X73.152 Y66.533 E6.00719
G1 X73.607 Y66.54 E6.0146
G1 X74.895 Y66.633 E6.03565
G1 X75.62 Y66.727 E6.04757
G1 X78.161 Y67.02 E6.08925
G1 X80.674 Y67.237 E6.13036
G1 X83.184 Y67.384 E6.17134
G1 X85.705 Y67.46 E6.21244
G1 X87.167 Y67.471 E6.23627
G1 X126.453 Y67.469 E6.87653
G1 X132.626 Y67.477 E6.97713
G1 X135.21 Y67.444 E7.01925
G1 X137.686 Y67.342 E7.05964
G1 X140.208 Y67.166 E7.10084
G1 X142.721 Y66.92 E7.14199
G1 X145.033 Y66.632 E7.17996
G1 X146.253 Y66.547 E7.19989
G1 X147.105 Y66.538 E7.21378
G1 X147.421 Y66.543 E7.21893
G1 X148.375 Y66.598 E7.2345
G1 X149.522 Y66.772 E7.25341
G1 X150.193 Y66.909 E7.26457
G1 X151.119 Y67.139 E7.28012
G1 X152.023 Y67.446 E7.29568
G1 X152.899 Y67.828 E7.31126
G1 X153.739 Y68.281 E7.32681
G1 X154.538 Y68.803 E7.34236
G1 X155.291 Y69.39 E7.35792
G1 X155.993 Y70.038 E7.37349
G1 X156.637 Y70.742 E7.38904
G1 X157.221 Y71.498 E7.40461
G1 X157.739 Y72.3 E7.42017
G1 X158.188 Y73.143 E7.43574
G1 X158.565 Y74.02 E7.4513
G1 X158.867 Y74.925 E7.46685
G1 X159.021 Y75.519 E7.47685
G1 X159.165 Y76.144 E7.4873
G1 X159.34 Y77.083 E7.50287
G1 X159.436 Y78.033 E7.51843
G1 X159.456 Y78.603 E7.52772
G1 X159.463 Y79.392 E7.54058
G1 X159.431 Y80.346 E7.55614
G1 X159.374 Y80.917 E7.56549
G1 X159.275 Y81.691 E7.57821
G1 X159.076 Y83.081 E7.60109
G1 X158.796 Y85.531 E7.64128
G1 X158.578 Y88.059 E7.68263
G1 X158.436 Y90.539 E7.72312
G1 X158.361 Y93.071 E7.7644
G1 X158.351 Y94.478 E7.78733
G1 X158.354 Y104.359 E7.94837
G1 X158.473 Y124.134 E8.27066
G1 X158.525 Y139.166 E8.51564
G1 X158.517 Y139.868 E8.52708
G1 X158.466 Y140.821 E8.54264
G1 X158.336 Y141.767 E8.5582
G1 X158.127 Y142.699 E8.57376
G1 X157.84 Y143.61 E8.58933
G1 X157.479 Y144.493 E8.60488
G1 X157.045 Y145.344 E8.62045
G1 X156.541 Y146.155 E8.63601
G1 X155.971 Y146.921 E8.65157
G1 X155.222 Y147.756 E8.66985
G1 X154.725 Y148.257 E8.68135
G1 X153.706 Y149.255 E8.7046
G1 X152.996 Y149.893 E8.72015
G1 X152.236 Y150.471 E8.73571
G1 X151.43 Y150.982 E8.75127
G1 X150.583 Y151.425 E8.76684
G1 X149.703 Y151.795 E8.7824
G1 X148.795 Y152.09 E8.79796
G1 X147.866 Y152.308 E8.81351
G1 X146.921 Y152.447 E8.82908
G1 X145.904 Y152.509 E8.84569
G1 X145.078 Y152.52 E8.85915
G1 X135.544 Y152.52 E9.01453
G1 X126.446 Y152.53 E9.1628
G1 X74.811 Y152.53 E10.00432
G1 X74.108 Y152.52 E10.01578
G1 X73.155 Y152.466 E10.03134
G1 X72.209 Y152.333 E10.04691
G1 X71.278 Y152.121 E10.06247
G1 X70.368 Y151.832 E10.07803
G1 X69.485 Y151.468 E10.09359
G1 X68.636 Y151.032 E10.10915
G1 X67.827 Y150.526 E10.1247
G1 X67.062 Y149.953 E10.14028
G1 X66.276 Y149.248 E10.15748
G1 X65.699 Y148.68 E10.17068
G1 X64.811 Y147.787 E10.1912
G1 X64.167 Y147.083 E10.20675
G1 X63.584 Y146.327 E10.22231
G1 X63.066 Y145.524 E10.23789
G1 X62.617 Y144.682 E10.25344
G1 X62.241 Y143.804 E10.269
G1 X61.939 Y142.899 E10.28455
G1 X61.714 Y141.971 E10.30012
G1 X61.567 Y141.027 E10.31569
G1 X61.5 Y140.075 E10.33124
G1 X61.504 Y139.301 E10.34385
G1 X61.574 Y137.524 E10.37284
G1 X61.648 Y133.691 E10.43532
G1 X61.511 Y93.214 E11.09499
G1 X61.467 Y90.67 E11.13646
G1 X61.352 Y88.16 E11.17741
G1 X61.164 Y85.634 E11.21869
G1 X60.911 Y83.162 E11.25919
G1 X60.639 Y81.038 E11.29409
G1 X60.549 Y79.797 E11.31437
G1 X60.537 Y78.796 E11.33068
G0 F6000 X60.937 Y78.803
G1 F1200 X60.941 Y78.556 E11.33471
G1 X60.997 Y77.62 E11.34999
G1 X61.184 Y76.431 E11.3696
G1 X61.324 Y75.777 E11.3805
G1 X61.559 Y74.87 E11.39577
G1 X61.871 Y73.985 E11.41107
G1 X62.257 Y73.13 E11.42636
G1 X62.714 Y72.311 E11.44164
G1 X63.239 Y71.535 E11.45691
G1 X63.829 Y70.805 E11.47221
G1 X64.479 Y70.129 E11.48749
G1 X65.184 Y69.51 E11.50278
G1 X65.939 Y68.954 E11.51806
G1 X66.738 Y68.464 E11.53334
G1 X67.577 Y68.044 E11.54863
G1 X68.448 Y67.697 E11.56391
G1 X69.746 Y67.33 E11.58589
G1 X70.513 Y67.169 E11.59866
G1 X70.778 Y67.12 E11.60306
G1 X71.707 Y66.989 E11.61835
G1 X72.502 Y66.94 E11.63133
G1 X73.146 Y66.933 E11.64182
G1 X73.601 Y66.94 E11.64924
G1 X74.844 Y67.03 E11.66955
G1 X75.528 Y67.119 E11.68079
G1 X78.148 Y67.421 E11.72377
G1 X80.653 Y67.638 E11.76475
G1 X83.149 Y67.783 E11.8055
G1 X85.69 Y67.86 E11.84693
G1 X87.164 Y67.871 E11.87095
G1 X126.452 Y67.869 E12.51125
G1 X132.63 Y67.877 E12.61193
G1 X135.197 Y67.844 E12.65377
G1 X137.73 Y67.739 E12.69509
G1 X140.273 Y67.563 E12.73663
G1 X142.731 Y67.322 E12.77688
G1 X145.082 Y67.029 E12.8155
G1 X146.259 Y66.947 E12.83473
G1 X147.099 Y66.938 E12.84842
G1 X147.415 Y66.943 E12.85357
G1 X148.351 Y66.998 E12.86885
G1 X149.442 Y67.164 E12.88683
G1 X150.113 Y67.301 E12.89799
G1 X151.023 Y67.528 E12.91328
G1 X151.91 Y67.831 E12.92855
G1 X152.768 Y68.209 E12.94383
G1 X153.592 Y68.659 E12.95914
G1 X154.373 Y69.177 E12.97441
G1 X155.108 Y69.759 E12.98969
G1 X155.791 Y70.403 E13.00499
G1 X156.416 Y71.102 E13.02027
G1 X156.979 Y71.852 E13.03555
G1 X157.477 Y72.647 E13.05084
G1 X157.905 Y73.481 E13.06612
G1 X158.26 Y74.349 E13.0814
G1 X158.631 Y75.609 E13.10281
G1 X158.775 Y76.234 E13.11326
G1 X158.947 Y77.156 E13.12855
G1 X159.039 Y78.09 E13.14384
G1 X159.056 Y78.606 E13.15226
G1 X159.063 Y79.395 E13.16512
G1 X159.031 Y80.333 E13.18041
G1 X158.977 Y80.867 E13.18916
G1 X158.879 Y81.635 E13.20178
G1 X158.68 Y83.02 E13.22458
G1 X158.395 Y85.52 E13.26559
G1 X158.181 Y88.003 E13.30621
G1 X158.035 Y90.54 E13.34762
G1 X157.961 Y93.056 E13.38864
G1 X157.951 Y94.475 E13.41177
G1 X157.954 Y104.362 E13.5729
G1 X158.073 Y124.136 E13.89517
G1 X158.125 Y139.161 E14.14005
G1 X158.117 Y139.863 E14.15149
G1 X158.067 Y140.8 E14.16678
G1 X157.936 Y141.729 E14.18207
G1 X157.727 Y142.643 E14.19735
G1 X157.441 Y143.536 E14.21263
G1 X157.08 Y144.402 E14.22792
G1 X156.647 Y145.233 E14.24319
G1 X156.144 Y146.025 E14.25848
G1 X155.576 Y146.771 E14.27377
G1 X154.938 Y147.474 E14.28924
G1 X154.445 Y147.971 E14.30065
G1 X153.426 Y148.969 E14.32389
G1 X152.728 Y149.596 E14.33918
G1 X151.98 Y150.161 E14.35446
G1 X151.186 Y150.661 E14.36975
G1 X150.353 Y151.091 E14.38503
G1 X149.486 Y151.449 E14.40032
G1 X148.592 Y151.731 E14.41559
G1 X147.676 Y151.936 E14.43089
G1 X146.747 Y152.063 E14.44617
G1 X145.898 Y152.109 E14.46003
G1 X145.078 Y152.12 E14.4734
G1 X135.543 Y152.12 E14.62879
G1 X126.446 Y152.13 E14.77705
G1 X74.817 Y152.13 E15.61847
G1 X74.114 Y152.12 E15.62993
G1 X73.177 Y152.067 E15.64523
G1 X72.249 Y151.934 E15.6605
G1 X71.335 Y151.722 E15.6758
G1 X70.443 Y151.434 E15.69107
G1 X69.578 Y151.07 E15.70637
G1 X68.748 Y150.634 E15.72165
G1 X67.957 Y150.129 E15.73694
G1 X67.213 Y149.559 E15.75222
G1 X66.557 Y148.963 E15.76666
G1 X65.983 Y148.398 E15.77979
G1 X65.095 Y147.505 E15.80031
G1 X64.463 Y146.813 E15.81558
G1 X63.892 Y146.069 E15.83087
G1 X63.386 Y145.279 E15.84616
G1 X62.95 Y144.449 E15.86144
G1 X62.585 Y143.584 E15.87674
G1 X62.296 Y142.692 E15.89202
G1 X62.084 Y141.779 E15.9073
G1 X61.95 Y140.85 E15.92259
G1 X61.896 Y139.914 E15.93787
G1 X61.904 Y139.316 E15.94762
G1 X61.974 Y137.546 E15.97649
G1 X62.048 Y133.698 E16.03921
G1 X61.911 Y93.202 E16.6992
G1 X61.867 Y90.644 E16.74089
G1 X61.752 Y88.148 E16.78162
G1 X61.563 Y85.599 E16.82327
G1 X61.307 Y83.11 E16.86405
G1 X61.036 Y80.987 E16.89893
G1 X60.949 Y79.79 E16.91849
G1 X60.937 Y78.803 E16.93458
G0 F6000 X61.337 Y78.809
G1 F1200 X61.341 Y78.562 E16.9386
G1 X61.396 Y77.643 E16.95361
G1 X61.575 Y76.515 E16.97222
G1 X61.715 Y75.861 E16.98312
G1 X61.946 Y74.97 E16.99812
G1 X62.255 Y74.103 E17.01312
G1 X62.637 Y73.265 E17.02813
G1 X63.09 Y72.464 E17.04313
G1 X63.611 Y71.705 E17.05813
G1 X64.197 Y70.994 E17.07315
G1 X64.841 Y70.337 E17.08814
G1 X65.54 Y69.738 E17.10314
G1 X66.289 Y69.202 E17.11815
G1 X67.081 Y68.733 E17.13316
G1 X67.911 Y68.334 E17.14816
G1 X68.772 Y68.009 E17.16316
G1 X69.831 Y67.721 E17.18105
G1 X70.586 Y67.563 E17.19362
G1 X70.851 Y67.514 E17.19801
G1 X71.762 Y67.386 E17.213
G1 X72.512 Y67.34 E17.22525
G1 X73.14 Y67.333 E17.23549
G1 X73.595 Y67.34 E17.2429
G1 X74.793 Y67.427 E17.26248
G1 X75.507 Y67.519 E17.27421
G1 X78.104 Y67.819 E17.31682
G1 X80.595 Y68.035 E17.35757
G1 X83.148 Y68.184 E17.39924
G1 X85.675 Y68.26 E17.44045
G1 X87.161 Y68.271 E17.46467
G1 X126.452 Y68.269 E18.10501
G1 X132.635 Y68.277 E18.20578
G1 X135.219 Y68.244 E18.24789
G1 X137.739 Y68.14 E18.289
G1 X140.304 Y67.962 E18.3309
G1 X142.78 Y67.719 E18.37145
G1 X145.131 Y67.426 E18.41006
G1 X146.266 Y67.346 E18.4286
G1 X147.093 Y67.338 E18.44208
G1 X147.409 Y67.343 E18.44723
G1 X148.328 Y67.398 E18.46224
G1 X149.361 Y67.556 E18.47927
G1 X150.032 Y67.693 E18.49043
G1 X150.926 Y67.916 E18.50544
G1 X151.796 Y68.216 E18.52044
G1 X152.637 Y68.591 E18.53545
G1 X153.443 Y69.036 E18.55045
G1 X154.207 Y69.55 E18.56546
G1 X154.923 Y70.129 E18.58047
G1 X155.586 Y70.767 E18.59546
G1 X156.192 Y71.461 E18.61048
G1 X156.735 Y72.204 E18.62548
G1 X157.211 Y72.992 E18.64048
G1 X157.618 Y73.818 E18.65549
G1 X157.951 Y74.676 E18.67049
G1 X158.241 Y75.699 E18.68782
G1 X158.385 Y76.324 E18.69827
G1 X158.553 Y77.229 E18.71327
G1 X158.641 Y78.146 E18.72828
G1 X158.656 Y78.61 E18.73585
G1 X158.663 Y79.399 E18.74871
G1 X158.631 Y80.319 E18.76371
G1 X158.58 Y80.817 E18.77187
G1 X158.483 Y81.578 E18.78437
G1 X158.286 Y82.951 E18.80698
G1 X157.997 Y85.479 E18.84845
G1 X157.782 Y87.979 E18.88934
G1 X157.635 Y90.541 E18.93116
G1 X157.561 Y93.041 E18.97193
G1 X157.551 Y94.472 E18.99525
G1 X157.554 Y104.364 E19.15646
G1 X157.673 Y124.137 E19.47872
G1 X157.725 Y139.157 E19.72351
G1 X157.717 Y139.859 E19.73495
G1 X157.667 Y140.778 E19.74995
G1 X157.537 Y141.689 E19.76495
G1 X157.328 Y142.586 E19.77996
G1 X157.043 Y143.461 E19.79495
G1 X156.682 Y144.309 E19.80997
G1 X156.249 Y145.121 E19.82497
G1 X155.748 Y145.893 E19.83997
G1 X155.181 Y146.619 E19.85498
G1 X154.654 Y147.193 E19.86768
G1 X154.165 Y147.685 E19.87899
G1 X153.146 Y148.683 E19.90223
G1 X152.461 Y149.298 E19.91724
G1 X151.725 Y149.851 E19.93224
G1 X150.944 Y150.339 E19.94725
G1 X150.123 Y150.756 E19.96226
G1 X149.27 Y151.101 E19.97725
G1 X148.389 Y151.371 E19.99227
G1 X147.489 Y151.563 E20.00727
G1 X146.575 Y151.676 E20.02228
G1 X145.892 Y151.709 E20.03342
G1 X145.078 Y151.72 E20.04669
G1 X135.543 Y151.72 E20.20208
G1 X126.446 Y151.73 E20.35034
G1 X74.822 Y151.73 E21.19168
G1 X74.119 Y151.72 E21.20314
G1 X73.2 Y151.667 E21.21814
G1 X72.289 Y151.534 E21.23315
G1 X71.393 Y151.323 E21.24815
G1 X70.519 Y151.035 E21.26315
G1 X69.672 Y150.672 E21.27817
G1 X68.861 Y150.237 E21.29316
G1 X68.09 Y149.733 E21.30818
G1 X67.366 Y149.165 E21.32317
G1 X66.837 Y148.678 E21.33489
G1 X66.267 Y148.116 E21.34794
G1 X65.379 Y147.223 E21.36846
G1 X64.758 Y146.543 E21.38347
G1 X64.2 Y145.811 E21.39847
G1 X63.706 Y145.034 E21.41348
G1 X63.282 Y144.217 E21.42848
