;FLAVOR:Marlin
;TIME:641
;Filament used: 0.164989m
;Layer height: 0.1
;MINX:89.25
;MINY:77.15
;MINZ:0.1
;MAXX:124.25
;MAXY:142.85
;MAXZ:2
;Generated with Cura_SteamEngine 5.0.0
M140 S45
M105
M190 S45
M104 S220
M105
M109 S220
M82 ;absolute extrusion mode
M201 X500.00 Y500.00 Z100.00 E5000.00 ;Setup machine max acceleration
M203 X500.00 Y500.00 Z10.00 E50.00 ;Setup machine max feedrate
M204 P500.00 R1000.00 T500.00 ;Setup Print/Retract/Travel acceleration
M205 X8.00 Y8.00 Z0.40 E5.00 ;Setup Jerk
M220 S100 ;Reset Feedrate
M221 S100 ;Reset Flowrate

G28 ;Home
M420 S1 Z2 ;Enable ABL using saved Mesh and Fade Height

G92 E0 ;Reset Extruder
G1 Z2.0 F3000 ;Move Z Axis up
G1 X10.1 Y20 Z0.28 F5000.0 ;Move to start position
G1 X10.1 Y200.0 Z0.28 F1500.0 E15 ;Draw the first line
G1 X10.4 Y200.0 Z0.28 F5000.0 ;Move to side a little
G1 X10.4 Y20 Z0.28 F1500.0 E30 ;Draw the second line
G92 E0 ;Reset Extruder
G1 Z2.0 F3000 ;Move Z Axis up

G92 E0
G92 E0
G1 F2400 E-4.5
;LAYER_COUNT:20
;LAYER:0
M107
G0 F6000 X92.462 Y80.876 Z0.1
G0 X89.251 Y89.464
;TYPE:SKIRT
G1 F2400 E0
G1 F1200 X89.26 Y88.799 E0.01084
G1 X89.313 Y87.829 E0.02667
G1 X89.446 Y86.867 E0.0425
G1 X89.657 Y85.919 E0.05833
G1 X89.946 Y84.991 E0.07417
G1 X90.31 Y84.091 E0.08999
G1 X90.747 Y83.223 E0.10583
G1 X91.254 Y82.394 E0.12166
G1 X91.827 Y81.61 E0.13749
G1 X92.462 Y80.876 E0.15331
G1 X93.156 Y80.196 E0.16914
G1 X93.904 Y79.576 E0.18498
G1 X94.7 Y79.019 E0.20081
G1 X95.539 Y78.53 E0.21664
G1 X96.416 Y78.111 E0.23248
G1 X97.324 Y77.766 E0.24831
G1 X98.257 Y77.497 E0.26413
G1 X99.209 Y77.305 E0.27996
G1 X100.174 Y77.192 E0.29579
G1 X101.049 Y77.155 E0.31007
G1 X111.743 Y77.15 E0.48435
G1 X112.61 Y77.161 E0.49848
G1 X113.58 Y77.215 E0.51432
G1 X114.542 Y77.349 E0.53015
G1 X115.49 Y77.561 E0.54598
G1 X116.417 Y77.85 E0.5618
G1 X117.318 Y78.215 E0.57764
G1 X118.185 Y78.652 E0.59347
G1 X119.013 Y79.16 E0.6093
G1 X119.797 Y79.734 E0.62514
G1 X120.531 Y80.37 E0.64096
G1 X121.21 Y81.064 E0.65679
G1 X121.83 Y81.812 E0.67262
G1 X122.386 Y82.609 E0.68846
G1 X122.875 Y83.448 E0.70428
G1 X123.293 Y84.325 E0.72012
G1 X123.637 Y85.234 E0.73596
G1 X123.906 Y86.167 E0.75178
G1 X124.097 Y87.12 E0.76762
G1 X124.208 Y88.084 E0.78344
G1 X124.245 Y88.948 E0.79753
G1 X124.25 Y130.314 E1.47169
G1 X124.24 Y131.187 E1.48592
G1 X124.188 Y132.157 E1.50175
G1 X124.056 Y133.12 E1.51759
G1 X123.846 Y134.068 E1.53342
G1 X123.559 Y134.996 E1.54925
G1 X123.196 Y135.897 E1.56508
G1 X122.76 Y136.765 E1.58091
G1 X122.254 Y137.594 E1.59674
G1 X121.682 Y138.379 E1.61257
G1 X121.047 Y139.114 E1.6284
G1 X120.354 Y139.795 E1.64423
G1 X119.607 Y140.416 E1.66006
G1 X118.811 Y140.974 E1.67591
G1 X117.973 Y141.464 E1.69173
G1 X117.097 Y141.884 E1.70756
G1 X116.189 Y142.23 E1.7234
G1 X115.256 Y142.5 E1.73923
G1 X114.304 Y142.693 E1.75506
G1 X113.339 Y142.807 E1.77089
G1 X112.451 Y142.845 E1.78538
G1 X101.757 Y142.85 E1.95966
G1 X100.907 Y142.84 E1.97352
G1 X99.937 Y142.788 E1.98935
G1 X98.975 Y142.655 E2.00518
G1 X98.026 Y142.445 E2.02102
G1 X97.099 Y142.157 E2.03684
G1 X96.198 Y141.793 E2.05267
G1 X95.33 Y141.357 E2.0685
G1 X94.501 Y140.851 E2.08433
G1 X93.716 Y140.278 E2.10017
G1 X92.981 Y139.643 E2.116
G1 X92.301 Y138.949 E2.13184
G1 X91.68 Y138.202 E2.14767
G1 X91.123 Y137.406 E2.1635
G1 X90.633 Y136.568 E2.17932
G1 X90.214 Y135.691 E2.19516
G1 X89.868 Y134.784 E2.21098
G1 X89.598 Y133.85 E2.22683
G1 X89.406 Y132.898 E2.24266
G1 X89.293 Y131.933 E2.25849
G1 X89.263 Y131.36 E2.26784
G1 X89.25 Y130.708 E2.27847
G1 X89.251 Y89.464 E2.95064
G0 F6000 X89.651 Y89.47
G1 F1200 X89.66 Y88.805 E2.96148
G1 X89.713 Y87.851 E2.97705
G1 X89.845 Y86.906 E2.9926
G1 X90.057 Y85.975 E3.00817
G1 X90.345 Y85.065 E3.02372
G1 X90.708 Y84.182 E3.03928
G1 X91.144 Y83.332 E3.05485
G1 X91.65 Y82.522 E3.07041
G1 X92.222 Y81.758 E3.08597
G1 X92.855 Y81.043 E3.10153
G1 X93.546 Y80.385 E3.11708
G1 X94.29 Y79.786 E3.13265
G1 X95.082 Y79.252 E3.14822
G1 X95.915 Y78.786 E3.16377
G1 X96.784 Y78.391 E3.17933
G1 X97.683 Y78.07 E3.19489
G1 X98.606 Y77.826 E3.21045
G1 X99.547 Y77.66 E3.22602
G1 X100.739 Y77.563 E3.24551
G1 X101.38 Y77.55 E3.25596
G1 X111.743 Y77.55 E3.42485
G1 X112.604 Y77.561 E3.43888
G1 X113.558 Y77.615 E3.45446
G1 X114.503 Y77.748 E3.47001
G1 X115.434 Y77.96 E3.48557
G1 X116.344 Y78.249 E3.50113
G1 X117.227 Y78.613 E3.5167
G1 X118.076 Y79.05 E3.53226
G1 X118.885 Y79.556 E3.54781
G1 X119.649 Y80.128 E3.56336
G1 X120.363 Y80.762 E3.57892
G1 X121.021 Y81.454 E3.59449
G1 X121.619 Y82.198 E3.61004
G1 X122.153 Y82.99 E3.62561
G1 X122.618 Y83.824 E3.64117
G1 X123.013 Y84.693 E3.65673
G1 X123.332 Y85.593 E3.67229
G1 X123.576 Y86.516 E3.68785
G1 X123.741 Y87.457 E3.70342
G1 X123.836 Y88.64 E3.72276
G1 X123.85 Y89.28 E3.7332
G1 X123.849 Y130.455 E4.40424
G1 X123.84 Y131.182 E4.41609
G1 X123.788 Y132.135 E4.43165
G1 X123.657 Y133.081 E4.44721
G1 X123.447 Y134.013 E4.46278
G1 X123.16 Y134.923 E4.47833
G1 X122.797 Y135.806 E4.49389
G1 X122.362 Y136.656 E4.50945
G1 X121.857 Y137.467 E4.52502
G1 X121.287 Y138.232 E4.54057
G1 X120.654 Y138.947 E4.55614
G1 X119.964 Y139.607 E4.5717
G1 X119.22 Y140.206 E4.58726
G1 X118.43 Y140.741 E4.60281
G1 X117.597 Y141.208 E4.61838
G1 X116.728 Y141.604 E4.63394
G1 X115.829 Y141.926 E4.6495
G1 X114.906 Y142.171 E4.66507
G1 X113.966 Y142.338 E4.68063
G1 X112.761 Y142.437 E4.70033
G1 X112.12 Y142.45 E4.71078
G1 X101.61 Y142.449 E4.88207
G1 X100.912 Y142.44 E4.89344
G1 X99.959 Y142.388 E4.909
G1 X99.013 Y142.256 E4.92456
G1 X98.082 Y142.045 E4.94012
G1 X97.171 Y141.758 E4.95569
G1 X96.288 Y141.395 E4.97125
G1 X95.439 Y140.959 E4.9868
G1 X94.628 Y140.454 E5.00237
G1 X93.863 Y139.883 E5.01793
G1 X93.149 Y139.25 E5.03348
G1 X92.489 Y138.559 E5.04905
G1 X91.89 Y137.816 E5.06461
G1 X91.356 Y137.025 E5.08016
G1 X90.889 Y136.192 E5.09573
G1 X90.494 Y135.323 E5.11128
G1 X90.172 Y134.424 E5.12684
G1 X89.928 Y133.501 E5.1424
G1 X89.761 Y132.561 E5.15796
G1 X89.663 Y131.349 E5.17778
G1 X89.65 Y130.708 E5.18823
G1 X89.651 Y89.47 E5.8603
G0 F6000 X90.051 Y89.475
G1 F1200 X90.06 Y88.81 E5.87114
G1 X90.113 Y87.874 E5.88642
G1 X90.245 Y86.945 E5.90171
G1 X90.456 Y86.031 E5.917
G1 X90.744 Y85.139 E5.93228
G1 X91.107 Y84.274 E5.94757
G1 X91.542 Y83.443 E5.96285
G1 X92.046 Y82.653 E5.97813
G1 X92.616 Y81.908 E5.99341
G1 X93.248 Y81.214 E6.00871
G1 X93.936 Y80.577 E6.02399
G1 X94.676 Y80.001 E6.03927
G1 X95.462 Y79.489 E6.05456
G1 X96.289 Y79.047 E6.06984
G1 X97.151 Y78.677 E6.08513
G1 X98.041 Y78.381 E6.10042
G1 X98.953 Y78.163 E6.1157
G1 X99.88 Y78.022 E6.13098
G1 X100.751 Y77.963 E6.14521
G1 X101.38 Y77.95 E6.15546
G1 X111.743 Y77.95 E6.32435
G1 X112.599 Y77.961 E6.33831
G1 X113.535 Y78.015 E6.35358
G1 X114.463 Y78.147 E6.36886
G1 X115.377 Y78.359 E6.38415
G1 X116.269 Y78.648 E6.39943
G1 X117.134 Y79.011 E6.41472
G1 X117.964 Y79.447 E6.43
G1 X118.755 Y79.952 E6.4453
G1 X119.499 Y80.523 E6.46058
G1 X120.192 Y81.155 E6.47587
G1 X120.829 Y81.843 E6.49115
G1 X121.404 Y82.584 E6.50643
G1 X121.915 Y83.37 E6.52171
G1 X122.357 Y84.198 E6.53701
G1 X122.726 Y85.06 E6.55229
G1 X123.021 Y85.95 E6.56757
G1 X123.239 Y86.862 E6.58285
G1 X123.379 Y87.79 E6.59815
G1 X123.437 Y88.651 E6.61221
G1 X123.45 Y89.28 E6.62247
G1 X123.449 Y130.45 E7.29343
G1 X123.44 Y131.177 E7.30528
G1 X123.389 Y132.114 E7.32057
G1 X123.257 Y133.042 E7.33585
G1 X123.048 Y133.956 E7.35113
G1 X122.761 Y134.849 E7.36642
G1 X122.399 Y135.715 E7.38171
G1 X121.965 Y136.546 E7.39699
G1 X121.461 Y137.337 E7.41228
G1 X120.892 Y138.082 E7.42756
G1 X120.261 Y138.777 E7.44286
G1 X119.574 Y139.415 E7.45814
G1 X118.835 Y139.992 E7.47342
G1 X118.049 Y140.504 E7.4887
G1 X117.223 Y140.947 E7.50398
G1 X116.361 Y141.319 E7.51928
G1 X115.472 Y141.615 E7.53455
G1 X114.56 Y141.835 E7.54984
G1 X113.633 Y141.976 E7.56512
G1 X112.749 Y142.037 E7.57956
G1 X112.12 Y142.05 E7.58982
G1 X101.615 Y142.049 E7.76102
G1 X100.917 Y142.04 E7.7724
G1 X99.981 Y141.988 E7.78768
G1 X99.052 Y141.856 E7.80297
G1 X98.138 Y141.646 E7.81825
G1 X97.245 Y141.359 E7.83354
G1 X96.38 Y140.996 E7.84883
G1 X95.549 Y140.562 E7.86411
G1 X94.758 Y140.058 E7.87939
G1 X94.013 Y139.488 E7.89468
G1 X93.319 Y138.857 E7.90997
G1 X92.682 Y138.17 E7.92524
G1 X92.105 Y137.43 E7.94053
G1 X91.593 Y136.644 E7.95582
G1 X91.15 Y135.817 E7.97111
G1 X90.779 Y134.956 E7.98639
G1 X90.483 Y134.066 E8.00167
G1 X90.264 Y133.154 E8.01696
G1 X90.123 Y132.227 E8.03224
G1 X90.063 Y131.338 E8.04676
G1 X90.05 Y130.708 E8.05703
G1 X90.051 Y89.475 E8.72902
G0 F6000 X90.451 Y89.481
G1 F1200 X90.46 Y88.816 E8.73986
G1 X90.512 Y87.896 E8.75488
G1 X90.644 Y86.985 E8.76988
G1 X90.855 Y86.089 E8.78488
G1 X91.142 Y85.214 E8.79989
G1 X91.505 Y84.368 E8.81489
G1 X91.939 Y83.556 E8.8299
G1 X92.442 Y82.785 E8.8449
G1 X93.011 Y82.061 E8.85991
G1 X93.639 Y81.389 E8.8749
G1 X94.324 Y80.773 E8.88991
G1 X95.06 Y80.22 E8.90492
G1 X95.841 Y79.732 E8.91993
G1 X96.661 Y79.314 E8.93493
G1 X97.515 Y78.969 E8.94994
G1 X98.395 Y78.699 E8.96494
G1 X99.295 Y78.507 E8.97994
G1 X100.209 Y78.393 E8.99495
G1 X100.762 Y78.363 E9.00397
G1 X101.38 Y78.35 E9.01405
G1 X111.743 Y78.35 E9.18294
G1 X112.593 Y78.361 E9.19679
G1 X113.512 Y78.414 E9.21179
G1 X114.423 Y78.547 E9.2268
G1 X115.319 Y78.758 E9.2418
G1 X116.193 Y79.046 E9.2568
G1 X117.04 Y79.409 E9.27182
G1 X117.851 Y79.844 E9.28681
G1 X118.621 Y80.348 E9.30181
G1 X119.345 Y80.917 E9.31682
G1 X120.017 Y81.547 E9.33183
G1 X120.632 Y82.232 E9.34684
G1 X121.185 Y82.968 E9.36184
G1 X121.672 Y83.749 E9.37684
G1 X122.089 Y84.57 E9.39185
G1 X122.434 Y85.424 E9.40686
G1 X122.703 Y86.304 E9.42185
G1 X122.895 Y87.205 E9.43687
G1 X123.008 Y88.118 E9.45186
G1 X123.046 Y88.982 E9.46596
G1 X123.049 Y130.445 E10.1417
G1 X123.04 Y131.172 E10.15355
G1 X122.989 Y132.091 E10.16855
G1 X122.858 Y133.003 E10.18356
G1 X122.648 Y133.899 E10.19856
G1 X122.362 Y134.774 E10.21356
G1 X122.001 Y135.621 E10.22857
G1 X121.567 Y136.433 E10.24357
G1 X121.065 Y137.205 E10.25858
G1 X120.497 Y137.93 E10.27359
G1 X119.869 Y138.603 E10.28859
G1 X119.185 Y139.219 E10.3036
G1 X118.45 Y139.773 E10.3186
G1 X117.67 Y140.262 E10.3336
G1 X116.85 Y140.681 E10.34861
G1 X115.997 Y141.027 E10.36361
G1 X115.117 Y141.298 E10.37861
G1 X114.217 Y141.491 E10.39362
G1 X113.303 Y141.606 E10.40863
G1 X112.738 Y141.637 E10.41785
G1 X112.12 Y141.65 E10.42793
G1 X101.62 Y141.649 E10.59905
G1 X100.922 Y141.64 E10.61043
G1 X100.003 Y141.588 E10.62543
G1 X99.092 Y141.457 E10.64043
G1 X98.196 Y141.247 E10.65542
G1 X97.321 Y140.96 E10.67043
G1 X96.474 Y140.598 E10.68544
G1 X95.662 Y140.164 E10.70045
G1 X94.891 Y139.662 E10.71544
G1 X94.166 Y139.094 E10.73045
G1 X93.493 Y138.465 E10.74547
G1 X92.878 Y137.781 E10.76046
G1 X92.324 Y137.046 E10.77546
G1 X91.836 Y136.265 E10.79047
G1 X91.417 Y135.445 E10.80547
G1 X91.071 Y134.592 E10.82048
G1 X90.801 Y133.712 E10.83548
G1 X90.608 Y132.811 E10.85049
G1 X90.494 Y131.898 E10.86549
G1 X90.463 Y131.327 E10.87481
G1 X90.45 Y130.708 E10.8849
G1 X90.451 Y89.481 E11.5568
G0 F6000 X90.851 Y89.486
G1 F1200 X90.86 Y88.821 E11.56763
G1 X90.912 Y87.919 E11.58236
G1 X91.044 Y87.026 E11.59707
G1 X91.254 Y86.148 E11.61178
G1 X91.541 Y85.291 E11.62651
G1 X91.903 Y84.464 E11.64123
G1 X92.336 Y83.672 E11.65594
G1 X92.838 Y82.921 E11.67066
G1 X93.405 Y82.217 E11.68539
G1 X94.031 Y81.567 E11.7001
G1 X94.712 Y80.974 E11.71481
G1 X95.444 Y80.444 E11.72954
G1 X96.219 Y79.981 E11.74425
G1 X97.032 Y79.588 E11.75897
G1 X97.877 Y79.268 E11.7737
G1 X98.746 Y79.025 E11.7884
G1 X99.634 Y78.859 E11.80313
G1 X100.773 Y78.763 E11.82175
G1 X101.38 Y78.75 E11.83165
G1 X111.743 Y78.75 E12.00054
G1 X112.587 Y78.761 E12.0143
G1 X113.489 Y78.814 E12.02902
G1 X114.382 Y78.946 E12.04373
G1 X115.26 Y79.157 E12.05845
G1 X116.116 Y79.445 E12.07317
G1 X116.943 Y79.807 E12.08788
G1 X117.735 Y80.242 E12.10261
G1 X118.486 Y80.744 E12.11733
G1 X119.189 Y81.311 E12.13205
G1 X119.839 Y81.938 E12.14677
G1 X120.431 Y82.62 E12.16149
G1 X120.961 Y83.351 E12.1762
G1 X121.423 Y84.127 E12.19092
G1 X121.816 Y84.94 E12.20564
G1 X122.134 Y85.785 E12.22035
G1 X122.377 Y86.655 E12.23507
G1 X122.542 Y87.543 E12.24979
G1 X122.637 Y88.673 E12.26827
G1 X122.65 Y89.28 E12.27817
G1 X122.649 Y130.44 E12.94897
G1 X122.64 Y131.167 E12.96082
G1 X122.589 Y132.069 E12.97555
G1 X122.458 Y132.963 E12.99027
G1 X122.249 Y133.841 E13.00498
G1 X121.963 Y134.698 E13.0197
G1 X121.602 Y135.526 E13.03442
G1 X121.17 Y136.318 E13.04913
G1 X120.669 Y137.07 E13.06385
G1 X120.103 Y137.774 E13.07858
G1 X119.478 Y138.425 E13.09328
G1 X118.797 Y139.019 E13.10801
G1 X118.066 Y139.55 E13.12274
G1 X117.292 Y140.014 E13.13744
G1 X116.479 Y140.408 E13.15217
G1 X115.635 Y140.728 E13.16688
G1 X114.765 Y140.973 E13.18161
G1 X113.878 Y141.139 E13.19631
G1 X112.727 Y141.237 E13.21514
G1 X112.12 Y141.25 E13.22504
G1 X101.625 Y141.249 E13.39608
G1 X100.927 Y141.24 E13.40745
G1 X100.026 Y141.189 E13.42216
G1 X99.132 Y141.057 E13.43689
G1 X98.254 Y140.848 E13.4516
G1 X97.397 Y140.561 E13.46633
G1 X96.57 Y140.2 E13.48103
G1 X95.777 Y139.767 E13.49576
G1 X95.026 Y139.266 E13.51047
G1 X94.322 Y138.7 E13.52519
G1 X93.671 Y138.074 E13.53991
G1 X93.078 Y137.393 E13.55463
G1 X92.548 Y136.662 E13.56934
G1 X92.084 Y135.887 E13.58407
G1 X91.69 Y135.074 E13.59879
G1 X91.37 Y134.23 E13.6135
G1 X91.126 Y133.36 E13.62823
G1 X90.96 Y132.472 E13.64295
G1 X90.863 Y131.317 E13.66184
G1 X90.85 Y130.708 E13.67177
G1 X90.851 Y89.486 E14.34358
G1 F2400 E9.84358
;MESH:screen.stl(1)
G0 F6000 X100.385 Y89.486
G0 X101.48 Y89.486
G0 X101.822 Y130.278
G0 X105.37 Y130.47
G1 F2400 E14.34358
G0 F6000 X105.75 Y130.85
;TYPE:WALL-OUTER
G1 F1200 X105.75 Y89.15 E15.02318
G1 X101.25 Y89.15 E15.09652
G1 X101.25 Y130.85 E15.77613
G1 X105.75 Y130.85 E15.84947
G0 F6000 X105.35 Y130.45
;TYPE:WALL-INNER
G1 F1200 X105.35 Y89.55 E16.51603
G1 X101.65 Y89.55 E16.57633
G1 X101.65 Y130.45 E17.2429
G1 X105.35 Y130.45 E17.3032
G0 F6000 X105.03 Y130.13
;TYPE:SKIN
G1 F1200 X105.03 Y91.4 E17.9344
G1 X105.03 Y89.87 E17.95934
G1 X101.97 Y89.87 E18.00921
G1 X101.97 Y130.13 E18.66534
G1 X105.03 Y130.13 E18.71521
G0 F6000 X105.25 Y130.13
G0 X102.776 Y130.35
G0 X102.776 Y129.929
G1 F1200 X102.169 Y129.322 E18.7292
G0 F6000 X102.169 Y128.756
G1 F1200 X103.342 Y129.929 E18.75624
G0 F6000 X103.907 Y129.929
G1 F1200 X102.169 Y128.19 E18.79631
G0 F6000 X102.169 Y127.624
G1 F1200 X104.473 Y129.929 E18.84942
G0 F6000 X104.829 Y129.72
G1 F1200 X102.169 Y127.059 E18.91074
G0 F6000 X102.169 Y126.493
G1 F1200 X104.829 Y129.154 E18.97206
G0 F6000 X104.829 Y128.588
G1 F1200 X102.169 Y125.927 E19.03338
G0 F6000 X102.169 Y125.362
G1 F1200 X104.829 Y128.023 E19.0947
G0 F6000 X104.829 Y127.457
G1 F1200 X102.169 Y124.796 E19.15602
G0 F6000 X102.169 Y124.23
G1 F1200 X104.829 Y126.891 E19.21734
G0 F6000 X104.829 Y126.326
G1 F1200 X102.169 Y123.665 E19.27866
G0 F6000 X102.169 Y123.099
G1 F1200 X104.829 Y125.76 E19.33998
G0 F6000 X104.829 Y125.194
G1 F1200 X102.169 Y122.533 E19.4013
G0 F6000 X102.169 Y121.968
G1 F1200 X104.829 Y124.628 E19.4626
G0 F6000 X104.829 Y124.063
G1 F1200 X102.169 Y121.402 E19.52392
G0 F6000 X102.169 Y120.836
G1 F1200 X104.829 Y123.497 E19.58524
G0 F6000 X104.829 Y122.931
G1 F1200 X102.169 Y120.271 E19.64655
G0 F6000 X102.169 Y119.705
G1 F1200 X104.829 Y122.366 E19.70787
G0 F6000 X104.829 Y121.8
G1 F1200 X102.169 Y119.139 E19.76919
G0 F6000 X102.169 Y118.574
G1 F1200 X104.829 Y121.234 E19.8305
G0 F6000 X104.829 Y120.669
G1 F1200 X102.169 Y118.008 E19.89182
G0 F6000 X102.169 Y117.442
G1 F1200 X104.829 Y120.103 E19.95314
G0 F6000 X104.829 Y119.537
G1 F1200 X102.169 Y116.876 E20.01446
G0 F6000 X102.169 Y116.311
G1 F1200 X104.829 Y118.972 E20.07578
G0 F6000 X104.829 Y118.406
G1 F1200 X102.169 Y115.745 E20.1371
G0 F6000 X102.169 Y115.179
G1 F1200 X104.829 Y117.84 E20.19842
G0 F6000 X104.829 Y117.275
G1 F1200 X102.169 Y114.614 E20.25973
G0 F6000 X102.169 Y114.048
G1 F1200 X104.829 Y116.709 E20.32105
G0 F6000 X104.829 Y116.143
G1 F1200 X102.169 Y113.482 E20.38237
G0 F6000 X102.169 Y112.917
G1 F1200 X104.829 Y115.578 E20.44369
G0 F6000 X104.829 Y115.012
G1 F1200 X102.169 Y112.351 E20.50501
G0 F6000 X102.169 Y111.785
G1 F1200 X104.829 Y114.446 E20.56633
G0 F6000 X104.829 Y113.88
